src/images/svg/symbols/markets-stocks-and-indices/american-stocks/stocks-nike.svg

<svg width="32" height="32" viewBox="0 0 32 32" fill="none" xmlns="http://www.w3.org/2000/svg">
<path d="M0 16C0 7.16344 7.16344 0 16 0C24.8366 0 32 7.16344 32 16C32 24.8366 24.8366 32 16 32C7.16344 32 0 24.8366 0 16Z" fill="black"/>
<path fill-rule="evenodd" clip-rule="evenodd" d="M7.07704 12.3822C5.50241 14.2193 4.00277 16.4913 4.00277 18.1934C3.98674 18.4981 4.04056 18.8024 4.16011 19.0831C4.27967 19.3638 4.46181 19.6134 4.6926 19.813C5.31409 20.3576 6.11588 20.6516 6.94208 20.6378C8.02819 20.5657 9.09122 20.291 10.0763 19.828C11.576 19.2431 27.8997 12.1423 27.8997 12.1423C28.0571 12.0598 28.0271 11.9623 27.8247 12.0148L10.0014 16.8362C9.66719 16.931 9.32147 16.979 8.9741 16.9787C7.60942 16.9787 6.4022 16.2288 6.4097 14.6392C6.45032 13.851 6.66818 13.0821 7.04705 12.3897L7.07704 12.3822Z" fill="white"/>
</svg>

<svg width="32" height="32" fill="none" xmlns="http://www.w3.org/2000/svg"><path d="M0 16C0 7.163 7.163 0 16 0s16 7.163 16 16-7.163 16-16 16S0 24.837 0 16Z" fill="#000"/><path fill-rule="evenodd" clip-rule="evenodd" d="M7.077 12.382c-1.575 1.837-3.074 4.11-3.074 5.811a2.002 2.002 0 0 0 .69 1.62 3.329 3.329 0 0 0 2.25.825 8.727 8.727 0 0 0 3.133-.81c1.5-.585 17.824-7.686 17.824-7.686.157-.082.127-.18-.075-.127L10 16.836c-.334.095-.68.143-1.027.143-1.365 0-2.572-.75-2.564-2.34a5.25 5.25 0 0 1 .637-2.25l.03-.007Z" fill="#fff"/></svg>
